!!!OTL: Yisui chu sheng ersui nÅ
!!!ARE: Asia, China,ˇHunan, Jiahe
!! I, 566
!!!SCT: C1478
!!!YEM: Copyright 1995, estate of Helmut Schaffrath.
**kern
*ICvox
*Ivox
*M3/4
*k[f#c#]
*D:
{8ee
16ff#
16ee
4.dd
8b
=1
8b
8dd
2ee
=2
4b
2dd
=3
8ee
8dd
2ff#}
=4
{4ee
2ff#
=5
8ff#
16ee
16dd
2dd
=6
8b
8dd
8ee
8ff#
8ee
8dd
=7
2.dd}
=8
{4ff#
4.ff#
8ee
=9
4ff#
8ee
4dd
8b
=10
2b
4dd
=11
12ee
12ff#
12ee
8dd
4.r}
=12
{4ff#
4.ee
8dd
=13
2b
4dd
=14
8ee
8dd
8b
8a
8b
8r}
=15
{4.ee
8ff#
8ee
8dd
=16
2b
4dd}
=17
{4ff#
4.ee
8dd
=18
8b
8dd
8ee
8dd
8b
8a
=19
2.b}
==
!!!AGN: Wuge, Fengsuge, Banjia ge
!!!ONB: ESAC (Essen Associative Code) Database: HUANG
!!!AMT: simple triple
!!!AIN: vox
!!!EED: Helmut Schaffrath
!!!EEV: 1.0
*-
